Origami/48x48/apps/torchlight-2.svg

<svg width="48" height="48" version="1" xmlns="http://www.w3.org/2000/svg">
 <rect transform="matrix(0,-1,-1,0,0,0)" x="-44" y="-44" width="40" height="40" rx="2" ry="2" style="fill:#4f4f4f"/>
 <path d="m6 4c-1.108 0-2 0.892-2 2v1c0-1.108 0.892-2 2-2h36c1.108 0 2 0.892 2 2v-1c0-1.108-0.892-2-2-2h-36z" style="fill:#ffffff;opacity:.1"/>
 <path d="m6 45c-1.108 0-2-0.892-2-2v-1c0 1.108 0.892 2 2 2h36c1.108 0 2-0.892 2-2v1c0 1.108-0.892 2-2 2h-36z" style="opacity:.2"/>
 <path d="m14 10v8c0-1 2.464563-3 4-3h4v19l-2 3h8l-2-3v-13.642578c0.827377-5.845852 3.757595-7.318015 7.949219-8.357422h-18.251953l-1.697266-2zm-4 11 2 3v13l-2 3h10l-2-3v-13l2-3h-10zm18 0 2 3v13l-2 3h10l-2-3v-13l2-3h-10z" style="opacity:.2"/>
 <path d="m14 9v8c0-1 2.464563-3 4-3h4v19l-2 3h8l-2-3v-13.641874c0.827377-5.845852 3.75754-7.318719 7.949164-8.358126h-18.252801z" style="fill:#ff8e19"/>
 <path d="m10 20h10l-2 3v13l2 3h-10l2-3v-13z" style="fill:#1289db"/>
 <path d="m28 20h10l-2 3v13l2 3h-10l2-3v-13z" style="fill:#1289db"/>
 <path d="m14 9v1l1.697266 2h15.189453c0.921642-0.412781 1.94594-0.723124 3.0625-1h-18.251953l-1.697266-2zm-4 11l0.666016 1h8.667968l0.666016-1h-10zm18 0l0.666016 1h8.667968l0.666016-1h-10zm-6 13l-2 3h0.666016l1.333984-2v-1zm4 0v1l1.333984 2h0.666016l-2-3zm-14 3l-2 3h0.666016l1.333984-2v-1zm6 0v1l1.333984 2h0.666016l-2-3zm12 0l-2 3h0.666016l1.333984-2v-1zm6 0v1l1.333984 2h0.666016l-2-3z" style="fill:#ffffff;opacity:.1"/>
</svg>

<svg xmlns="http://www.w3.org/2000/svg" width="48" height="48" version="1">
 <rect style="fill:#4f4f4f" width="40" height="40" x="-44" y="-44" rx="2" ry="2" transform="matrix(0,-1,-1,0,0,0)"/>
 <path style="opacity:0.1;fill:#ffffff" d="M 6,4 C 4.892,4 4,4.892 4,6 L 4,7 C 4,5.892 4.892,5 6,5 l 36,0 c 1.108,0 2,0.892 2,2 L 44,6 C 44,4.892 43.108,4 42,4 L 6,4 Z"/>
 <path style="opacity:0.2" d="M 6,45 C 4.892,45 4,44.108 4,43 l 0,-1 c 0,1.108 0.892,2 2,2 l 36,0 c 1.108,0 2,-0.892 2,-2 l 0,1 c 0,1.108 -0.892,2 -2,2 L 6,45 Z"/>
 <path style="opacity:0.2" d="m 14,10 0,8 c 0,-1 2.464563,-3 4,-3 l 4,0 0,19 -2,3 8,0 -2,-3 0,-13.642578 C 26.827377,14.51157 29.757595,13.039407 33.949219,12 L 15.697266,12 14,10 Z m -4,11 2,3 0,13 -2,3 10,0 -2,-3 0,-13 2,-3 -10,0 z m 18,0 2,3 0,13 -2,3 10,0 -2,-3 0,-13 2,-3 -10,0 z"/>
 <path style="fill:#ff8e19" d="m 14,9 0,8 c 0,-1 2.464563,-3 4,-3 l 4,0 0,19 -2,3 8,0 -2,-3 0,-13.641874 C 26.827377,13.512274 29.75754,12.039407 33.949164,11 l -18.252801,0 z"/>
 <path style="fill:#1289db" d="m 10,20 10,0 -2,3 0,13 2,3 -10,0 2,-3 0,-13 z"/>
 <path style="fill:#1289db" d="m 28,20 10,0 -2,3 0,13 2,3 -10,0 2,-3 0,-13 z"/>
 <path style="opacity:0.1;fill:#ffffff" d="M 14 9 L 14 10 L 15.697266 12 L 30.886719 12 C 31.808361 11.587219 32.832659 11.276876 33.949219 11 L 15.697266 11 L 14 9 z M 10 20 L 10.666016 21 L 19.333984 21 L 20 20 L 10 20 z M 28 20 L 28.666016 21 L 37.333984 21 L 38 20 L 28 20 z M 22 33 L 20 36 L 20.666016 36 L 22 34 L 22 33 z M 26 33 L 26 34 L 27.333984 36 L 28 36 L 26 33 z M 12 36 L 10 39 L 10.666016 39 L 12 37 L 12 36 z M 18 36 L 18 37 L 19.333984 39 L 20 39 L 18 36 z M 30 36 L 28 39 L 28.666016 39 L 30 37 L 30 36 z M 36 36 L 36 37 L 37.333984 39 L 38 39 L 36 36 z"/>
</svg>
